src/assets/icons/uid.svg

<svg width="34" height="24" viewBox="0 0 34 24" fill="none" xmlns="http://www.w3.org/2000/svg">
<path d="M0.5 3C0.5 1.61929 1.61929 0.5 3 0.5H31C32.3807 0.5 33.5 1.61929 33.5 3V21C33.5 22.3807 32.3807 23.5 31 23.5H3C1.61929 23.5 0.5 22.3807 0.5 21V3Z" fill="#F0F0FF" stroke="#D9D8FF"/>
<path d="M15.9067 9.4376C15.9067 9.8126 15.9067 10.1761 16.025 10.5164C14.7817 11.9761 11.499 15.8328 11.1933 16.127C11.1325 16.1815 11.0839 16.2483 11.0506 16.3228C11.0173 16.3973 11.0001 16.4781 11 16.5597C11 16.8049 11.15 17.0414 11.2769 17.1741C11.4673 17.3732 12.2808 18.1261 12.4308 17.9818C12.875 17.5491 12.9644 17.4338 13.1462 17.2549C13.4202 16.9866 13.1173 16.4386 13.2125 16.2164C13.3077 15.9943 13.4087 15.9511 13.5731 15.9164C13.7375 15.8818 14.0288 16.0001 14.2567 16.003C14.4962 16.0059 14.626 15.9049 14.8048 15.7376C14.949 15.6049 15.0529 15.4809 15.0558 15.2876C15.0615 15.028 14.6865 14.6847 14.9663 14.4107C15.2462 14.1366 15.65 14.5895 15.9471 14.5549C16.2442 14.5203 16.6048 14.1078 16.6423 13.9318C16.6798 13.7559 16.3048 13.303 16.3625 13.0462C16.3827 12.9597 16.5587 12.7578 16.6913 12.7289C16.824 12.7001 17.4125 12.928 17.5452 12.8991C17.7067 12.8645 17.8942 12.6943 18.0471 12.5991C18.4942 12.7924 18.901 12.8703 19.4231 12.8703C21.399 12.8703 23 11.3299 23 9.43183C23 7.53375 21.399 6 19.4231 6C17.4471 6 15.9067 7.53952 15.9067 9.4376ZM21.1538 8.76923C21.1538 8.9518 21.0997 9.13027 20.9983 9.28206C20.8969 9.43386 20.7527 9.55218 20.584 9.62204C20.4153 9.69191 20.2297 9.71019 20.0507 9.67457C19.8716 9.63895 19.7072 9.55104 19.5781 9.42194C19.449 9.29285 19.361 9.12837 19.3254 8.94931C19.2898 8.77025 19.3081 8.58466 19.378 8.41598C19.4478 8.24731 19.5661 8.10315 19.7179 8.00172C19.8697 7.90029 20.0482 7.84615 20.2308 7.84615C20.4756 7.84615 20.7104 7.94341 20.8835 8.11652C21.0566 8.28963 21.1538 8.52442 21.1538 8.76923Z" fill="#271FE0"/>
</svg>

<svg width="34" height="24" fill="none" xmlns="http://www.w3.org/2000/svg"><path d="M.5 3A2.5 2.5 0 013 .5h28A2.5 2.5 0 0133.5 3v18a2.5 2.5 0 01-2.5 2.5H3A2.5 2.5 0 01.5 21V3z" fill="#F0F0FF" stroke="#D9D8FF"/><path d="M15.907 9.438c0 .375 0 .738.118 1.078-1.243 1.46-4.526 5.317-4.832 5.611a.582.582 0 00-.193.433c0 .245.15.481.277.614.19.2 1.004.952 1.154.808.444-.433.533-.548.715-.727.274-.268-.029-.816.066-1.039.096-.222.197-.265.361-.3.165-.034.456.084.684.087.24.003.369-.098.548-.265.144-.133.248-.257.25-.45.007-.26-.368-.603-.089-.877.28-.274.684.178.981.144.297-.035.658-.447.695-.623.038-.176-.337-.629-.28-.886.02-.086.197-.288.33-.317.132-.029.72.199.853.17.162-.034.35-.205.502-.3.447.193.854.271 1.376.271C21.4 12.87 23 11.33 23 9.432 23 7.534 21.399 6 19.423 6s-3.516 1.54-3.516 3.438zm5.247-.669a.923.923 0 11-1.847 0 .923.923 0 011.847 0z" fill="#271FE0"/></svg>
